icons/x-circle-fill-12.svg

<svg width="12" height="12" viewBox="0 0 12 12" fill="none" xmlns="http://www.w3.org/2000/svg">
<path fill-rule="evenodd" clip-rule="evenodd" d="M1.75736 10.2426C-0.585786 7.89949 -0.585786 4.1005 1.75736 1.75736C4.10051 -0.585786 7.8995 -0.585787 10.2426 1.75736C12.5858 4.1005 12.5858 7.8995 10.2426 10.2426C7.8995 12.5858 4.10051 12.5858 1.75736 10.2426ZM6 4.76256L4 2.76256L2.76256 4L4.76256 6L2.76256 8L4 9.23744L6 7.23744L8 9.23744L9.23744 8L7.23744 6L9.23744 4L8 2.76256L6 4.76256Z" fill="#24292F"/>
</svg>

<svg xmlns="http://www.w3.org/2000/svg" width="12" height="12" viewBox="0 0 12 12"><path fill-rule="evenodd" d="M1.757 10.243a6 6 0 118.486-8.486 6 6 0 01-8.486 8.486zM6 4.763l-2-2L2.763 4l2 2-2 2L4 9.237l2-2 2 2L9.237 8l-2-2 2-2L8 2.763l-2 2z"/></svg>
